X:7662
T:Trip To Athlone
O:england
R:Jig
S:Paddy Canny, Clare (fiddle)
D:Home tape of unknown provenance
N:As played
H:'c's are very mobile
M:6/8
K:G
|: ABA D2d | {e}dcA {B}AGE | (3ABcG ABc | dAB cde |
ABA D3 | (3.d.d.cA {B}AGE | GFG Ade |1 fd^c dcB :|2fd^c d2e ||
|:{g}fed edc | AdB cde | {g}fed efg| ABc def |
~g3 age | dcA AGE | GFG Ade |1 fd^c d2e :|2 fd^c dcB ||


